X:1
T:Miss Galvin's
R:reel
S:Liam O'Connor &amp; Sen McKeon (Geantrai 21/11/08)
Z:Me
M:C|
K:A dorian
A2 A/A/A A2 Bd  |  egfg edBA | GFEF G3 B | cABG AG E/F/G |
A/B/A GB A2 Bd  |  egfg edBA | B3 d efga | gedB cAA2 ||
ea a/a/a agbg | agbg agef | g/f/e be g/f/e be | g/f/e be gedg |
ea a/a/a agbg | agbg aged | B3 d egga | gedB cAA2 ||
